X: 245
T:Gee O'Dobbin. JC.250
T:How Do You Do,aka. JC.250
M:6/8
L:1/8
Q:120
C:How Do You Do,aka.
S:John Clare,Poet,Helpstone (1793-1864)
R:Air
O:England4
A:Northamptonshire
N:No KS in MS.More or less the same as the morris dance tune, ""How Do
N:You Do,"from
N:Sherborne. CGP.
Z:vmp.P. Headford
K:D
"qu's"A/G/|FDF AFA|BAB ABc|dcd Bge|cAcd2:|!
|:"qu's"c/d/|efe dcB|ecAA2F/G/|ABA AGF|GEG"crot"G3|!
F2A FDF|G2B GEG|FGA Bcd|cBcd2:|]
W:Song text exists,(or not). See Deacon.|
